images/decorative/skills/redux-icon.svg

<svg width="512" height="512" fill="none" xmlns="http://www.w3.org/2000/svg"><path d="M348.589 344.897c17.713-1.803 31.152-16.815 30.54-34.832-.609-18.015-15.881-32.428-34.205-32.428h-1.221c-18.937.6-33.596 16.214-32.985 34.83.611 9.008 4.275 16.815 9.773 22.22-20.768 40.237-52.53 69.662-100.174 94.284-32.374 16.815-65.968 22.821-99.563 18.618-27.487-3.604-48.866-15.613-62.306-35.433-19.545-29.426-21.377-61.255-4.884-93.082 11.606-22.821 29.929-39.636 41.535-48.044-2.443-7.807-6.109-21.018-7.94-30.626-88.57 63.056-79.407 148.332-52.53 188.567C54.783 459 95.71 477.616 140.91 477.616c12.215 0 24.431-1.202 36.648-4.203 78.186-15.014 137.436-60.656 171.03-128.516Zm107.505-74.466c-46.423-53.448-114.834-82.874-193.02-82.874h-9.772c-5.498-10.81-17.104-18.017-29.931-18.017h-1.222c-18.934.601-33.593 16.214-32.983 34.832.611 18.015 15.881 32.429 34.205 32.429h1.221c13.438-.601 25.044-9.009 29.93-20.419h10.995c46.424 0 90.402 13.211 130.107 39.035 30.54 19.818 52.53 45.641 64.745 76.868 10.384 25.223 9.773 49.844-1.222 70.864-17.102 31.828-45.81 49.244-83.681 49.244-24.434 0-47.644-7.208-59.862-12.612-6.718 6.005-18.935 15.613-27.487 21.62 26.267 12.01 53.143 18.617 78.797 18.617 58.638 0 102.007-31.83 118.5-63.657 17.713-34.832 16.49-94.886-29.32-145.93Zm-310.297 84.673c.611 18.017 15.881 32.428 34.205 32.428h1.223c18.936-.599 33.594-16.214 32.983-34.83-.609-18.017-15.881-32.428-34.206-32.428h-1.22c-1.223 0-3.056 0-4.275.599-25.045-40.836-35.428-85.274-31.763-133.318 2.442-36.032 14.659-67.261 36.038-93.084 17.713-22.22 51.919-33.03 75.131-33.629 64.746-1.202 92.231 78.069 94.065 109.898 7.941 1.801 21.379 6.006 30.542 9.008-7.331-97.285-68.413-147.73-127.05-147.73-54.975 0-105.673 39.035-125.831 96.686-28.097 76.868-9.773 150.734 24.433 208.986-3.053 4.203-4.886 10.809-4.275 17.416v-.002Z" fill="#764ABC"/></svg>

<svg width="512" height="512" viewBox="0 0 512 512" fill="none" xmlns="http://www.w3.org/2000/svg">
<path d="M348.589 344.897C366.302 343.094 379.741 328.082 379.129 310.065C378.52 292.05 363.248 277.637 344.924 277.637H343.703C324.766 278.237 310.107 293.851 310.718 312.467C311.329 321.475 314.993 329.282 320.491 334.687C299.723 374.924 267.961 404.349 220.317 428.971C187.943 445.786 154.349 451.792 120.754 447.589C93.2669 443.985 71.8881 431.976 58.4481 412.156C38.9031 382.73 37.0712 350.901 53.5637 319.074C65.17 296.253 83.4925 279.438 95.0987 271.03C92.6556 263.223 88.99 250.012 87.1581 240.404C-1.41127 303.46 7.75185 388.736 34.6281 428.971C54.7844 459 95.71 477.616 140.911 477.616C153.126 477.616 165.342 476.414 177.559 473.413C255.745 458.399 314.995 412.757 348.589 344.897ZM456.094 270.431C409.671 216.983 341.26 187.557 263.074 187.557H253.302C247.804 176.747 236.198 169.54 223.371 169.54H222.149C203.215 170.141 188.556 185.754 189.166 204.372C189.777 222.387 205.047 236.801 223.371 236.801H224.592C238.03 236.2 249.636 227.792 254.522 216.382H265.517C311.941 216.382 355.919 229.593 395.624 255.417C426.164 275.235 448.154 301.058 460.369 332.285C470.753 357.508 470.142 382.129 459.147 403.149C442.045 434.977 413.337 452.393 375.466 452.393C351.032 452.393 327.822 445.185 315.604 439.781C308.886 445.786 296.669 455.394 288.117 461.401C314.384 473.411 341.26 480.018 366.914 480.018C425.552 480.018 468.921 448.188 485.414 416.361C503.127 381.529 501.904 321.475 456.094 270.431ZM145.797 355.104C146.408 373.121 161.678 387.532 180.002 387.532H181.225C200.161 386.933 214.819 371.318 214.208 352.702C213.599 334.685 198.327 320.274 180.002 320.274H178.782C177.559 320.274 175.726 320.274 174.507 320.873C149.462 280.037 139.079 235.599 142.744 187.555C145.186 151.523 157.403 120.294 178.782 94.4707C196.495 72.2508 230.701 61.4413 253.913 60.8423C318.659 59.6404 346.144 138.911 347.978 170.74C355.919 172.541 369.357 176.746 378.52 179.748C371.189 82.4631 310.107 32.0176 251.47 32.0176C196.495 32.0176 145.797 71.0526 125.639 128.704C97.5419 205.572 115.866 279.438 150.072 337.69C147.019 341.893 145.186 348.499 145.797 355.106V355.104Z" fill="#764ABC"/>
</svg>
